X:1
T:Title
%%score 1 2 3 4
L:1/8
M:4/2
K:C
V:1 treble nm="Part_1"
V:2 treble nm="Part_2"
V:3 treble-8 nm="Part_3"
V:4 treble-8 nm="Part_4"
V:1
 z16 | z16 | z8 G8 | (c8 d8) | c8 e6 f2 | g4 a8 g4- | g2 f2 e2 d2 e4 f4- | f2 e2 d2 c2 B2 A2 d4- | %8
 d2 c2 c8 =B4 | c16 || (G8 c8-) | c4 B2 A2 B6 c2 | d4 e8 d4- | d2 c2 c8 =B4 | c16 | z8 e8 | %16
 f8 (e8 | d8) e4 f4- | f4 e6 c2 c4- | c4 d6 c2 B2 A2 | B4 c6 B2 G4- | G4 c8 B2 A2 | B4 d8 ^c4 | %23
 d8 z8 | z16 | z16 | f12 e4 | d8 c8 | z8 (A8 | B8) (A8 | G8) c4 c4- | c4 =B2 A2 B8 | c16 | z8 g8- | %34
 g4 f4 e4 d4 | c8 e8 | f4 g8 ^f4 | g16 | z16 | z16 | z16 | z16 | z16 | z16 | z16 | z16 | z8 g8 | %47
 a8 (a8 | g8) e4 (3:2:1f6- | (3:2:2f2 e4 e8 d4 | e16 | z16 | z4 e4 f4 g4- | g4 f4 (g8 | c8) z4 e4 | %55
 f4 g8 f2 e2 | d8 c8 | d4 e6 d2 c4- | c4 B4 c8 | c12 B4 | (A8 G8) | z4 c4 d4 e4 | f12 e4 | %63
 d4 c4 B8 | d8 e8 | d4 c8 B2 A2 | B16- | B16 | z8 c8 | G8 (c8 | d8) c4 e4 | f4 g8 f4 | g4 a8 g4 | %73
 e4 f8 e4 | d4 c4 B6 A2 | B4 c8 =B4 | c16 |] %77
V:2
 G,8 C8 | D8 E4 C4- | C4 B,4 C4 (3:2:1E6- | (3:2:2E2 D4 C8 B,4 | C16 | z4 C4 D4 B,4 | E8 C4 A,4- | %7
 A,4 D4 E4 F4 | E4 A4 G8 | G16 || E16 | G8 G6 A2 | B2 A2 c6 B2 A4- | A4 F4 G8- | G4 A6 G2 c4- | %15
 c4 B4 c4 G4 | A4 F4 G4 E4 | z4 F4 E4 C4 | D4 E6 F2 E4 | A8 G8 | z4 G4 A4 G4 | E16 | z16 | F12 E4 | %24
 D8 C4 C4- | C4 B,4 C8 | z8 z4 (3:2:1G6- | (3:2:2G2 F4 G4 C4 F4- | F4 E4 F4 C4 | D8 C8 | z4 G8 F4 | %31
 G16 | z8 G8- | G4 F4 E4 D4 | C8 (G8 | A8) c6 B2 | A4 G4 A8 | G16 | z16 | z16 | z8 c8- | c8 (B8 | %42
 (3:2:2c8) B4 A4 G4- | G2 F2 E2 D2 E4 F4 | G4 (3:2:2A8 G4 G4- | G4 F4 G4 A4 | G4 F6 E2 E4- | %47
 E4 D2 C2 D8 | E8 z4 c4- | c4 B4 A4 D4 | G4 c8 A4 | B4 c8 B4 | (3:2:2c8 B4 A4 G4 | A8 G8 | %54
 z4 A4 (3:2:2c8 B4 | A4 G8 c4- | c4 B4 c4 G4 | A4 (3:2:2c8 B4 G4- | G8 E4 C4- | C4 F6 E2 D2 C2 | %60
 D8 z8 | z16 | z4 D8 C4 | D4 A,4 D8- | D8 z8 | z4 G8 F4 | G8 z4 D4 | E4 D4 (3:2:2G8 A4 | %68
 B4 G6 F2 E4 | D8 C4 c4 | B4 A4 (3:2:2c8 B4 | A4 G4 A8 | G4 F2 G2 A2 B2 c4- | c2 B2 A2 G2 F4 G4 | %74
 A4 G4 (3:2:2G8 F4 | G16 | G16 |] %77
V:3
 z16 | G8 (c8 | d8) c8 | z4 e4 f4 d4 | e6 f2 g4 a4 | g4 f8 e4 | c8 z4 d4- | d2 e2 f4 g4 d4 | %8
 e4 f4 d8 | c16 || c16 | e8 d6 e2 | f4 g8 f4 | e4 d2 c2 d8 | c8 z4 e4 | (f8 e8) | d8 e4 g4- | %17
 g4 f4 g4 a4 | f4 g4 a8 | (f8 d8-) | (d4 e4) f4 e2 d2 | c6 d2 e2 f2 g4- | g2 f2 e2 d2 e8 | d16 | %24
 z16 | f12 e4 | d8 c8 | z8 (A8 | B8) (A8 | G8) c4 c4- | c4 B4 c8 | d16 | c16- | c16 | z8 c8 | %35
 f8 e4 c4 | d4 e4 d8 | z8 g8- | g4 f4 e4 d4 | c4 e8 f4 | g4 (3:2:2a8 g4 g4- | g4 f4 g8 | %42
 e12 d2 c2 | B4 c4 A2 B2 c2 d2 | e4 f4 e4 d4- | d4 c4 d4 (3:2:1e6- | (3:2:2e2 d4 c4 B4 c4- | %47
 c4 A4 A6 B2 | c2 d2 e2 f2 g4 a4- | a2 g2 f2 e2 f8 | e8 z4 e4 | f4 g8 f4 | g8 z4 e4 | c4 d4 e8 | %54
 f8 e8 | z16 | z8 z4 e4 | f4 (3:2:2g8 f4 e4 | d8 c4 f4 | e4 a8 g4- | g2 ^f2 f2 e2 g8 | a8 g8 | %62
 z8 a8 | f8 g8 | f8 e4 g4- | g2 f2 e2 d2 c8 | d16 | z4 d8 e4 | d4 (3:2:2e8 d4 c4- | c4 B4 c8 | %70
 z4 f8 g4 | f4 e4 d8 | z4 d4 c2 d2 e2 f2 | g4 a8 g4 | f4 e4 (3:2:2d8 c4 | d4 e4 d8 | c16 |] %77
V:4
 G8 A4 c4- | c4 B4 c4 A4 | G8 z4 c4- | c2 B2 A2 G2 F4 G4 | C8 (3:2:2C8 D4 | E4 F4 D4 E4- | %6
 E4 A6 G2 F2 E2 | D8 z4 D4 | A4 F4 G8 | C16 || c16 | c8 G6 FE | D4 C8 D4 | A8 G8 | %14
 C4 (3:2:2F8 E4 C4 | D8 C8 | z8 (c8 | d8) c4 A4 | d4 (3:2:2c8 A4 A4- | A4 D4 (3:2:2G8 F4 | %20
 G4 C4 z4 C4- | C4 C6 D2 E2 F2 | G4 _B4 A8 | D8 z8 | F12 E4 | D8 C4 c4- | c4 B4 c8 | B4 G4 A4 F4 | %28
 G8 F8 | z8 F8 | (G8 (A8) | G16) | C16- | C16 | C16 | z16 | z16 | G12 F4 | E4 D4 C4 G4 | %39
 A4 (3:2:2c8 B4 A4 | G4 c6 B2 A2 G2 | A8 G8 | z4 c8 B4 | G4 (3:2:2c8 B4 A4 | G4 F4 (G8 | %45
 A8) G4 (3:2:1c6- | (3:2:2c2 B4 A4 G4 E4 | F8 F8 | E4 c6 B2 A2 G2 | F4 G4 A4 B4 | %50
 c4 (3:2:2A8 B4 c4 | d4 c4 d8 | c8 z8 | z16 | z8 C8 | D4 E8 D2 C2 | G8 C8 | z4 C6 D2 E2 F2 | %58
 G8 A8- | A4 F8 G4 | D4 d4 B4 c4- | c4 A4 B4 c4 | d8 z4 A4 | _B4 A4 G6 FE | D8 C4 c4 | B4 c4 A8 | %66
 G16- | G16 | G8 C8 | (G8 A8) | D8 z8 | z8 z4 D4 | E4 F8 E4 | C4 F4 D4 E4 | F4 C4 (3:2:2G8 A4 | %75
 G4 C4 G8 | C16 |] %77

